X: 161611
T: Poll Ha'penny [HP]
T: Mail\'i Nic Ailp\'in
S: B.Breathnach:"Ceol Rince na hEireann" III/222 
Z: B.Black
L: 1/8
M: 4/4
R: hornpipe
K: Ador
ed|c2 EF GE E2|GBAG G2 cd|(3efg ec (3Bcd cA|GE E2 G2 GE|
(3AAA AB cBcA|d3e fdfg|(3agf ge fdec|(3ABA GB A2 :|
ef|: g3z gedA|(3Bcd ef ge d2|ea a2 a3g|ea a2 a3g|
effa gfed|^cdef g2 fg|(3agf ge fdec|(3ABA GB A2 :|
